assets/Nose/Dark/Flat/nose_flat_dark.svg

<svg width="32" height="32" viewBox="0 0 32 32" fill="none" xmlns="http://www.w3.org/2000/svg">
<path d="M19.1303 7.99717C19.1303 7.99717 18.75 4.75 16 4.75C13.25 4.75 12.8697 7.99717 12.8697 7.99717L11.5 15C11 17 10 17 10 17C7.5 17.5 5.5 18.7909 5.5 21C5.5 23.2091 7.5 25 9 25C9 25 11.25 24.75 12 25.6C12.75 26.44 14.1628 27.25 16 27.25C17.8372 27.25 19.25 26.4422 20 25.6C20.75 24.75 23 25 23 25C24.5 25 26.5 23.2091 26.5 21C26.5 18.7909 24.5 17.5 22 17C22 17 21 17 20.5 15L19.1303 7.99717Z" fill="#573739"/>
<path d="M12 25.5C12 25.5325 11.9991 25.5649 11.9974 25.5971C11.2448 24.7506 9.00002 25 9.00002 25C8.59397 25 8.15129 24.8688 7.72156 24.6335C8.08479 23.9629 8.8566 23.5 9.75002 23.5C10.9927 23.5 12 24.3954 12 25.5Z" fill="black"/>
<path d="M22.25 23.5C23.1434 23.5 23.9152 23.9629 24.2785 24.6335C23.8487 24.8688 23.406 25 23 25C23 25 20.7552 24.7506 20.0026 25.5971C20.0009 25.5649 20 25.5325 20 25.5C20 24.3954 21.0074 23.5 22.25 23.5Z" fill="black"/>
</svg>

<svg xmlns="http://www.w3.org/2000/svg" width="32" height="32" fill="none"><path fill="#573739" d="M19.13 7.997S18.75 4.75 16 4.75s-3.13 3.247-3.13 3.247L11.5 15c-.5 2-1.5 2-1.5 2-2.5.5-4.5 1.79-4.5 4s2 4 3.5 4c0 0 2.25-.25 3 .6.75.84 2.163 1.65 4 1.65 1.837 0 3.25-.808 4-1.65.75-.85 3-.6 3-.6 1.5 0 3.5-1.79 3.5-4s-2-3.5-4.5-4c0 0-1 0-1.5-2l-1.37-7.003Z"/><path fill="#000" d="M12 25.5c0 .032 0 .065-.003.097C11.245 24.751 9 25 9 25c-.406 0-.849-.131-1.278-.366.363-.671 1.135-1.134 2.028-1.134 1.243 0 2.25.895 2.25 2ZM22.25 23.5c.893 0 1.665.463 2.029 1.134-.43.235-.873.366-1.279.366 0 0-2.245-.25-2.997.597A1.842 1.842 0 0 1 20 25.5c0-1.105 1.007-2 2.25-2Z"/></svg>
